64x64/apps/upsource.svg

<svg height="64" width="64" xmlns="http://www.w3.org/2000/svg"><path d="m6.8 61c-1.55 0-2.8-1.25-2.8-2.8v-2c0 1.55 1.25 2.8 2.8 2.8h50.4c1.55 0 2.8-1.25 2.8-2.8v2c0 1.55-1.25 2.8-2.8 2.8h-25.2z" opacity=".2"/><path d="m32 4h-25.2a2.794 2.794 0 0 0 -2.8 2.8v25.2h28z" fill="#2086e7"/><path d="m32 4h25.2c1.551 0 2.8 1.249 2.8 2.8v25.2h-28z" fill="#ff8c2a"/><path d="m32 60h-25.2a2.794 2.794 0 0 1 -2.8-2.8v-25.2h28z" fill="#6655e4"/><path d="m32 60h25.2c1.551 0 2.8-1.249 2.8-2.8v-25.2h-28z" fill="#2086e7"/><path d="m6.8 4c-1.55 0-2.8 1.25-2.8 2.8v1c0-1.55 1.25-2.8 2.8-2.8h50.4c1.55 0 2.8 1.25 2.8 2.8v-1c0-1.55-1.25-2.8-2.8-2.8z" fill="#f4f4f7" opacity=".2"/><path d="m12 12h40v40h-40z" fill="#17191e"/><g fill="none" stroke-linecap="round" stroke-width="4"><path d="m18 47h16" opacity=".2" stroke="#000"/><path d="m18 46h16" stroke="#f4f4f7"/><g stroke-linejoin="bevel"><path d="m26 19v12c0 3.029-2.087 4.049-4 4-1.791.007-4-.933-4-4v-12" opacity=".2" stroke="#000"/><path d="m26 18v12c0 3.029-2.087 4.05-4 4-1.791.007-4-.933-4-4v-12" stroke="#f4f4f7"/><path d="m34 27s8 .928 8-4c0-4.93-8-4-8-4m0 16v-16" opacity=".2" stroke="#000"/><path d="m34 26s8 .929 8-4c0-4.93-8-4-8-4m0 16v-16" stroke="#f4f4f7"/></g></g></svg>

<svg xmlns="http://www.w3.org/2000/svg" width="64" height="64" version="1"><path style="opacity:.2" d="M6.8 61C5.25 61 4 59.75 4 58.2v-2C4 57.75 5.25 59 6.8 59h50.4c1.55 0 2.8-1.25 2.8-2.8v2c0 1.55-1.25 2.8-2.8 2.8H32z"/><path style="fill:#2086e7" d="M32 4H6.8A2.794 2.794 0 0 0 4 6.8V32h28z"/><path style="fill:#ff8c2a" d="M32 4h25.2C58.751 4 60 5.249 60 6.8V32H32z"/><path style="fill:#6655e4" d="M32 60H6.8A2.794 2.794 0 0 1 4 57.2V32h28z"/><path style="fill:#2086e7" d="M32 60h25.2c1.551 0 2.8-1.249 2.8-2.8V32H32z"/><path style="opacity:.2;fill:#f4f4f7" d="M6.8 4C5.25 4 4 5.25 4 6.8v1C4 6.25 5.25 5 6.8 5h50.4C58.75 5 60 6.25 60 7.8v-1C60 5.25 58.75 4 57.2 4H6.8z"/><path style="fill:#17191e" d="M12 12h40v40H12z"/><path style="opacity:.2;fill:none;stroke:#000;stroke-width:4;stroke-linecap:round" d="M18 47h16"/><path style="fill:none;stroke:#f4f4f7;stroke-width:4;stroke-linecap:round" d="M18 46h16"/><path style="opacity:.2;fill:none;stroke:#000;stroke-width:3.99999976;stroke-linecap:round;stroke-linejoin:bevel" d="M26 19v12c0 3.029-2.087 4.049-4 4-1.791.007-4-.933-4-4V19"/><path style="fill:none;stroke:#f4f4f7;stroke-width:3.99999976;stroke-linecap:round;stroke-linejoin:bevel" d="M26 18v12c0 3.029-2.087 4.05-4 4-1.791.007-4-.933-4-4V18"/><path style="opacity:.2;fill:none;stroke:#000;stroke-width:3.99999976;stroke-linecap:round;stroke-linejoin:bevel" d="M34 27s8 .928 8-4c0-4.93-8-4-8-4m0 16V19"/><path style="fill:none;stroke:#f4f4f7;stroke-width:3.99999976;stroke-linecap:round;stroke-linejoin:bevel" d="M34 26s8 .929 8-4c0-4.93-8-4-8-4m0 16V18"/></svg>
